packages/sources/icons/src/vitamix/calendar-check-line.svg

<svg width="16" height="16" viewBox="0 0 16 16" fill="none" xmlns="http://www.w3.org/2000/svg">
<path fill-rule="evenodd" clip-rule="evenodd" d="M6 2.66666V1.33333H4.66667V2.66666H2C1.63181 2.66666 1.33334 2.96514 1.33334 3.33333V14C1.33334 14.3682 1.63181 14.6667 2 14.6667H14C14.3682 14.6667 14.6667 14.3682 14.6667 14V3.33333C14.6667 2.96514 14.3682 2.66666 14 2.66666H11.3333V1.33333H10V2.66666H6ZM2.66667 7.33333H13.3333V13.3333H2.66667V7.33333ZM10.024 8.09067L10.0244 8.091L7.66738 10.448L6.25338 9.03333L5.30938 9.976L7.66671 12.3333L10.9667 9.03333L10.0244 8.091L10.0247 8.09067H10.024ZM2.66667 3.99999H4.66667V4.66666H6V3.99999H10V4.66666H11.3333V3.99999H13.3333V5.99999H2.66667V3.99999Z" fill="#001018"/>
</svg>

<svg width="16" height="16" fill="none" xmlns="http://www.w3.org/2000/svg"><path fill-rule="evenodd" clip-rule="evenodd" d="M6 2.667V1.333H4.667v1.334H2a.667.667 0 0 0-.667.666V14c0 .368.299.667.667.667h12a.667.667 0 0 0 .667-.667V3.333A.667.667 0 0 0 14 2.667h-2.667V1.333H10v1.334H6zM2.667 7.333h10.666v6H2.667v-6zm7.357.758-2.357 2.357-1.414-1.415-.944.943 2.358 2.357 3.3-3.3-.943-.942zM2.667 4h2v.667H6V4h4v.667h1.333V4h2v2H2.667V4z" fill="#001018"/></svg>
